twotone/svg/all_inbox.svg

<svg xmlns="http://www.w3.org/2000/svg" width="24" height="24"><path fill="none" d="M0 0h24v24H0V0z"/><g fill="currentColor"><path d="M19 3H5c-1.1 0-2 .9-2 2v7c0 1.1.9 2 2 2h14c1.1 0 2-.9 2-2V5c0-1.1-.9-2-2-2zM5 10h3.13c.21.78.67 1.47 1.27 2H5v-2zm14 2h-4.4c.6-.53 1.06-1.22 1.27-2H19v2zm0-4h-5v1c0 1.07-.93 2-2 2s-2-.93-2-2V8H5V5h14v3zM14 15v1c0 .47-.19.9-.48 1.25-.37.45-.92.75-1.52.75s-1.15-.3-1.52-.75c-.29-.35-.48-.78-.48-1.25v-1H3v4c0 1.1.9 2 2 2h14c1.1 0 2-.9 2-2v-4h-7zm-9 2h3.13c.02.09.06.17.09.25.24.68.65 1.28 1.18 1.75H5v-2zm14 2h-4.4c.54-.47.95-1.07 1.18-1.75.03-.08.07-.16.09-.25H19v2z"/><g><path opacity=".3" d="M8.13 10H5v2h4.4c-.6-.53-1.06-1.22-1.27-2zM14.6 12H19v-2h-3.13c-.21.78-.67 1.47-1.27 2zM8.22 17.25c-.03-.08-.06-.16-.09-.25H5v2h4.4c-.53-.47-.94-1.07-1.18-1.75zM15.87 17c-.02.09-.06.17-.09.25-.23.68-.64 1.28-1.18 1.75H19v-2h-3.13z"/></g></g></svg>

<?xml version="1.0" encoding="utf-8"?>
<!-- Generator: Adobe Illustrator 19.1.0, SVG Export Plug-In . SVG Version: 6.00 Build 0)  -->
<svg version="1.1" xmlns="http://www.w3.org/2000/svg" xmlns:xlink="http://www.w3.org/1999/xlink" x="0px" y="0px" width="24px"
	 height="24px" viewBox="0 0 24 24" enable-background="new 0 0 24 24" xml:space="preserve">
<g id="Header_x2F_BG" display="none">
	<rect x="-226" y="-94" display="inline" fill="#F1F1F2" width="520" height="520"/>
</g>
<g id="Bounding_Boxes">
	<g id="ui_x5F_spec_x5F_header_copy_3">
	</g>
	<path fill="none" d="M0,0h24v24H0V0z"/>
</g>
<g id="Rounded" display="none">
	<g id="ui_x5F_spec_x5F_header_copy_5" display="inline">
	</g>
	<path display="inline" d="M19,3H5C3.9,3,3,3.9,3,5v7c0,1.1,0.9,2,2,2h14c1.1,0,2-0.9,2-2V5C21,3.9,20.1,3,19,3z M19,9l-3.14,0
		c-0.47,0-0.84,0.33-0.97,0.78C14.53,11.04,13.35,12,12,12s-2.53-0.96-2.89-2.22C8.98,9.33,8.61,9,8.14,9L5,9V6c0-0.55,0.45-1,1-1
		h12c0.55,0,1,0.45,1,1V9z M15.87,16L20,16c0.55,0,1,0.45,1,1v2c0,1.1-0.9,2-2,2H5c-1.1,0-2-0.9-2-2v-2c0-0.55,0.45-1,1-1l4.13,0
		c0.47,0,0.85,0.34,0.98,0.8C9.46,18.07,10.62,19,12,19s2.54-0.93,2.89-2.2C15.02,16.34,15.4,16,15.87,16z"/>
</g>
<g id="Sharp" display="none">
	<g id="ui_x5F_spec_x5F_header_copy_4" display="inline">
	</g>
	<path display="inline" d="M21,3H3v11h18V3z M19,9h-4c0,1.62-1.38,3-3,3s-3-1.38-3-3H5V5h14V9z M15,16h6v5H3v-5h6c0,1.66,1.34,3,3,3
		S15,17.66,15,16z"/>
</g>
<g id="Outline" display="none">
	<g id="ui_x5F_spec_x5F_header" display="inline">
	</g>
	<g display="inline">
		<path d="M19,3H5C3.9,3,3,3.9,3,5v7c0,1.1,0.9,2,2,2h14c1.1,0,2-0.9,2-2V5C21,3.9,20.1,3,19,3z M5,10h3.13
			c0.21,0.78,0.67,1.47,1.27,2H5V10z M19,12h-4.4c0.6-0.53,1.06-1.22,1.27-2H19V12z M19,8h-5v1c0,1.07-0.93,2-2,2s-2-0.93-2-2V8H5V5
			h14V8z"/>
		<path d="M17,15h-3v1c0,0.47-0.19,0.9-0.48,1.25C13.15,17.7,12.6,18,12,18s-1.15-0.3-1.52-0.75C10.19,16.9,10,16.47,10,16v-1H8H5H3
			v4c0,1.1,0.9,2,2,2h14c1.1,0,2-0.9,2-2v-4h-2H17z M5,17h3h0.13c0.02,0.09,0.06,0.17,0.09,0.25C8.46,17.93,8.87,18.53,9.4,19H5V17z
			 M19,19h-4.4c0.54-0.47,0.95-1.07,1.18-1.75c0.03-0.08,0.07-0.16,0.09-0.25H17h2V19z"/>
	</g>
</g>
<g id="Duotone" fill="currentColor">
	<g id="ui_x5F_spec_x5F_header_copy_2">
	</g>
	<g>
		<g>
			<path d="M19,3H5C3.9,3,3,3.9,3,5v7c0,1.1,0.9,2,2,2h14c1.1,0,2-0.9,2-2V5C21,3.9,20.1,3,19,3z M5,10h3.13
				c0.21,0.78,0.67,1.47,1.27,2H5V10z M19,12h-4.4c0.6-0.53,1.06-1.22,1.27-2H19V12z M19,8h-5v1c0,1.07-0.93,2-2,2s-2-0.93-2-2V8H5
				V5h14V8z"/>
			<path d="M14,15v1c0,0.47-0.19,0.9-0.48,1.25C13.15,17.7,12.6,18,12,18s-1.15-0.3-1.52-0.75C10.19,16.9,10,16.47,10,16v-1H3v4
				c0,1.1,0.9,2,2,2h14c1.1,0,2-0.9,2-2v-4H14z M5,17h3h0.13c0.02,0.09,0.06,0.17,0.09,0.25C8.46,17.93,8.87,18.53,9.4,19H5V17z
				 M19,19h-4.4c0.54-0.47,0.95-1.07,1.18-1.75c0.03-0.08,0.07-0.16,0.09-0.25H17h2V19z"/>
		</g>
		<g>
			<path opacity="0.3" d="M8.13,10H5v2h4.4C8.8,11.47,8.34,10.78,8.13,10z"/>
			<path opacity="0.3" d="M14.6,12H19v-2h-3.13C15.66,10.78,15.2,11.47,14.6,12z"/>
			<path opacity="0.3" d="M8.22,17.25C8.19,17.17,8.16,17.09,8.13,17H8H5v2h4.4C8.87,18.53,8.46,17.93,8.22,17.25z"/>
			<path opacity="0.3" d="M15.87,17c-0.02,0.09-0.06,0.17-0.09,0.25c-0.23,0.68-0.64,1.28-1.18,1.75H19v-2H15.87z"/>
		</g>
	</g>
</g>
<g id="Fill" display="none">
	<g id="ui_x5F_spec_x5F_header_copy" display="inline">
	</g>
	<path display="inline" d="M19,3H5C3.9,3,3,3.9,3,5v7c0,1.1,0.9,2,2,2h14c1.1,0,2-0.9,2-2V5C21,3.9,20.1,3,19,3z M19,9h-4
		c0,1.62-1.38,3-3,3s-3-1.38-3-3H5V5h14V9z M15,16h6v3c0,1.1-0.9,2-2,2H5c-1.1,0-2-0.9-2-2v-3h6c0,1.66,1.34,3,3,3S15,17.66,15,16z"
		/>
</g>
<g id="nyt_x5F_exporter_x5F_info" display="none">
	<g display="inline">
		<path d="M4.5,0.1v0.6h-6V0.1H4.5z"/>
		<path d="M3.08,10.75l-5.56,2.85v-0.83l4.73-2.35V10.4l-4.73-2.35V7.22l5.56,2.85V10.75z"/>
		<path d="M-0.71,23.77c0-0.6-0.01-1.09-0.05-1.57h0.94l0.06,0.96h0.02c0.29-0.55,0.96-1.09,1.92-1.09c0.8,0,2.05,0.48,2.05,2.47V28
			H3.18v-3.35c0-0.94-0.35-1.71-1.34-1.71c-0.7,0-1.24,0.49-1.42,1.08c-0.05,0.13-0.07,0.31-0.07,0.49V28h-1.06V23.77z"/>
		<path d="M5.81,26.92c0.31,0.2,0.86,0.42,1.39,0.42c0.77,0,1.13-0.38,1.13-0.86c0-0.5-0.3-0.78-1.08-1.07
			c-1.04-0.37-1.54-0.95-1.54-1.64c0-0.94,0.76-1.7,2-1.7c0.59,0,1.1,0.17,1.43,0.36l-0.26,0.77c-0.23-0.14-0.65-0.34-1.19-0.34
			c-0.62,0-0.97,0.36-0.97,0.79c0,0.48,0.35,0.7,1.1,0.98c1.01,0.38,1.52,0.89,1.52,1.75c0,1.02-0.79,1.74-2.17,1.74
			c-0.64,0-1.22-0.16-1.63-0.4L5.81,26.92z"/>
		<path d="M10.71,24.09c0-0.74-0.02-1.34-0.05-1.9h0.95l0.05,1h0.02c0.43-0.71,1.12-1.13,2.06-1.13c1.4,0,2.46,1.19,2.46,2.95
			c0,2.09-1.27,3.12-2.64,3.12c-0.77,0-1.44-0.34-1.79-0.91h-0.02v3.15h-1.04V24.09z M11.75,25.64c0,0.16,0.02,0.3,0.05,0.43
			c0.19,0.73,0.83,1.24,1.58,1.24c1.12,0,1.76-0.91,1.76-2.24c0-1.16-0.61-2.16-1.73-2.16c-0.72,0-1.39,0.52-1.6,1.31
			c-0.04,0.13-0.07,0.29-0.07,0.43V25.64z"/>
		<path d="M20.75,28l-0.08-0.73h-0.04c-0.32,0.46-0.95,0.86-1.77,0.86c-1.18,0-1.77-0.83-1.77-1.67c0-1.4,1.25-2.17,3.49-2.16v-0.12
			c0-0.48-0.13-1.34-1.32-1.34c-0.54,0-1.1,0.17-1.51,0.43l-0.24-0.7c0.48-0.31,1.18-0.52,1.91-0.52c1.77,0,2.21,1.21,2.21,2.37
			v2.17c0,0.5,0.02,1,0.1,1.39H20.75z M20.59,25.04c-1.15-0.02-2.46,0.18-2.46,1.31c0,0.68,0.46,1.01,1,1.01
			c0.76,0,1.24-0.48,1.4-0.97c0.04-0.11,0.06-0.23,0.06-0.34V25.04z"/>
		<path d="M23.32,24.01c0-0.68-0.01-1.27-0.05-1.81h0.92l0.04,1.14h0.05c0.26-0.78,0.9-1.27,1.61-1.27c0.12,0,0.2,0.01,0.3,0.04v1
			c-0.11-0.02-0.22-0.04-0.36-0.04c-0.74,0-1.27,0.56-1.42,1.36c-0.02,0.14-0.05,0.31-0.05,0.49V28h-1.04V24.01z"/>
	</g>
</g>
</svg>
